src/assets/duotone/ArrowDown2.svg

<svg width="24" height="24" viewBox="0 0 24 24"  xmlns="http://www.w3.org/2000/svg">
<path opacity="0.4" d="M2 16.19V7.81C2 4.17 4.17 2 7.81 2H16.18C19.83 2 22 4.17 22 7.81V16.18C22 19.82 19.83 21.99 16.19 21.99H7.81C4.17 22 2 19.83 2 16.19Z" />
<path d="M11.4699 18.53L7.1799 14.24C6.8899 13.95 6.8899 13.47 7.1799 13.18C7.4699 12.89 7.9499 12.89 8.2399 13.18L11.2499 16.19V6C11.2499 5.59 11.5899 5.25 11.9999 5.25C12.4099 5.25 12.7499 5.59 12.7499 6V16.19L15.7599 13.18C16.0499 12.89 16.5299 12.89 16.8199 13.18C16.9699 13.33 17.0399 13.52 17.0399 13.71C17.0399 13.9 16.9699 14.09 16.8199 14.24L12.5299 18.53C12.3899 18.67 12.1999 18.75 11.9999 18.75C11.7999 18.75 11.6099 18.67 11.4699 18.53Z" />
</svg>

<?xml version="1.0" encoding="UTF-8"?>
<svg width="24" height="24" viewBox="0 0 24 24" xmlns="http://www.w3.org/2000/svg">
 <path d="M2 16.19V7.81C2 4.17 4.17 2 7.81 2H16.18C19.83 2 22 4.17 22 7.81V16.18C22 19.82 19.83 21.99 16.19 21.99H7.81C4.17 22 2 19.83 2 16.19Z" opacity=".4"/>
 <path d="m11.47 18.53-4.29-4.29c-0.29-0.29-0.29-0.77 0-1.06s0.77-0.29 1.06 0l3.01 3.01v-10.19c0-0.41 0.34-0.75 0.75-0.75s0.75 0.34 0.75 0.75v10.19l3.01-3.01c0.29-0.29 0.77-0.29 1.06 0 0.15 0.15 0.22 0.34 0.22 0.53s-0.07 0.38-0.22 0.53l-4.29 4.29c-0.14 0.14-0.33 0.22-0.53 0.22s-0.39-0.08-0.53-0.22z"/>
</svg>
